src/icons/disconnected.svg

<?xml version="1.0" encoding="UTF-8"?>
<svg width="512px" height="512px" viewBox="0 0 512 512" version="1.1" xmlns="http://www.w3.org/2000/svg" xmlns:xlink="http://www.w3.org/1999/xlink">
    <!-- Generator: Sketch 62 (91390) - https://sketch.com -->
    <title>disconnected</title>
    <desc>Created with Sketch.</desc>
    <g id="disconnected" stroke="none" stroke-width="1" fill="none" fill-rule="evenodd">
        <path d="M86,333.264537 C86.9,329.364537 87.7,325.364537 88.9,321.364537 C91.8,312.264537 96.8,304.364537 103.6,297.664537 L173.1,228.164537 C173.5,227.764537 173.9,227.464537 174.1,227.264537 L192.2,245.364537 C191.6,245.964537 190.8,246.864537 189.9,247.764537 L122.8,314.864537 C114.5,323.164537 110.5,332.864537 112.5,344.664537 C114.5,356.564537 121.3,365.064537 132.3,369.364537 C143.5,373.864537 154.4,372.464537 164.2,364.964537 C166.3,363.364537 168.3,361.564537 170.1,359.664537 L247.8,281.964537 C249.1,280.564537 250.4,279.264537 252.1,277.464537 C242.7,274.564537 234.5,270.464537 227.3,264.064537 C220.2,257.664537 215.4,249.564537 210.8,240.964537 C218.2,236.864537 225.6,232.664537 233.3,228.364537 C238.8,239.364537 245.4,249.164537 258.7,252.264537 C256.3,240.264537 249.8,231.864537 238.8,227.264537 C227.7,222.664537 217.2,225.264537 206.5,229.964537 C203.6,221.764537 200.7,213.864537 197.9,206.064537 C229,189.264537 275.6,203.364537 284.3,247.764537 C285.2,247.364537 286.1,246.864537 286.9,246.464537 C318.7,228.564537 350.5,210.864537 382.3,192.864537 C393.8,186.364537 400,176.464537 399.9,163.064537 C399.8,139.964537 374.7,124.064537 354,134.464537 C339,141.964537 324.6,150.664537 309.9,158.864537 C288.3,170.964537 266.7,183.064537 245.1,195.264537 C244.2,195.764537 243.2,196.364537 241.9,196.964537 C237.8,189.564537 233.6,182.264537 229.4,174.764537 C230.3,174.164537 231,173.664537 231.8,173.164537 C267.1,153.364537 302.3,133.364537 337.6,113.864537 C359.5,101.764537 381.2,102.364537 401.6,116.964537 C419.6,129.864537 427.7,148.064537 425.2,170.264537 C423,190.564537 412.4,205.464537 394.8,215.364537 C361.9,233.964537 328.9,252.464537 295.9,270.764537 C292,272.964537 287.6,274.364537 283.5,276.264537 C282.3,276.864537 280.9,277.964537 280.4,279.164537 C277,287.264537 271.9,294.064537 265.8,300.264537 C239.4,326.664537 213,352.964537 186.7,379.364537 C174.3,391.864537 159.3,397.964537 141.6,397.464537 C114.5,396.564537 90.4,375.064537 86.7,348.164537 C86.6,347.064537 86.2,346.064537 86,344.964537 L86,333.264537 L86,333.264537 Z M116.8,217.564537 C113.4,217.564537 110.9,215.564537 110.5,212.564537 C110,209.164537 111.7,206.564537 115.4,205.764537 C123.4,204.164537 131.5,202.664537 139.5,201.264537 L182.6,193.564537 C186.6,192.864537 189.6,194.664537 190.3,197.964537 C191,201.464537 189.1,204.364537 185.2,205.064537 C162.7,209.164537 140.2,213.264537 117.7,217.264537 C117.3,217.564537 116.9,217.564537 116.8,217.564537 Z M191.3,107.964537 C191.3,104.464537 193.4,102.064537 196.4,101.564537 C199.5,101.164537 202.3,102.864537 203,106.264537 C204.4,112.764537 205.4,119.264537 206.6,125.864537 C209.5,141.864537 212.4,157.764537 215.2,173.764537 C215.9,177.664537 214,180.764537 210.6,181.364537 C207.1,181.964537 204.2,180.064537 203.5,176.064537 C199.4,153.764537 195.4,131.464537 191.4,109.264537 C191.3,108.764537 191.3,108.164537 191.3,107.964537 Z" id="Shape" fill="#000000" fill-rule="nonzero"></path>
    </g>
</svg>

<svg xmlns="http://www.w3.org/2000/svg" width="512" height="512" viewBox="0 0 512 512">
    <path d="M86 333.265c.9-3.9 1.7-7.9 2.9-11.9 2.9-9.1 7.9-17 14.7-23.7l69.5-69.5c.4-.4.8-.7 1-.9l18.1 18.1c-.6.6-1.4 1.5-2.3 2.4l-67.1 67.1c-8.3 8.3-12.3 18-10.3 29.8 2 11.9 8.8 20.4 19.8 24.7 11.2 4.5 22.1 3.1 31.9-4.4 2.1-1.6 4.1-3.4 5.9-5.3l77.7-77.7c1.3-1.4 2.6-2.7 4.3-4.5-9.4-2.9-17.6-7-24.8-13.4-7.1-6.4-11.9-14.5-16.5-23.1 7.4-4.1 14.8-8.3 22.5-12.6 5.5 11 12.1 20.8 25.4 23.9-2.4-12-8.9-20.4-19.9-25-11.1-4.6-21.6-2-32.3 2.7-2.9-8.2-5.8-16.1-8.6-23.9 31.1-16.8 77.7-2.7 86.4 41.7.9-.4 1.8-.9 2.6-1.3 31.8-17.9 63.6-35.6 95.4-53.6 11.5-6.5 17.7-16.4 17.6-29.8-.1-23.1-25.2-39-45.9-28.6-15 7.5-29.4 16.2-44.1 24.4-21.6 12.1-43.2 24.2-64.8 36.4-.9.5-1.9 1.1-3.2 1.7-4.1-7.4-8.3-14.7-12.5-22.2.9-.6 1.6-1.1 2.4-1.6 35.3-19.8 70.5-39.8 105.8-59.3 21.9-12.1 43.6-11.5 64 3.1 18 12.9 26.1 31.1 23.6 53.3-2.2 20.3-12.8 35.2-30.4 45.1-32.9 18.6-65.9 37.1-98.9 55.4-3.9 2.2-8.3 3.6-12.4 5.5-1.2.6-2.6 1.7-3.1 2.9-3.4 8.1-8.5 14.9-14.6 21.1-26.4 26.4-52.8 52.7-79.1 79.1-12.4 12.5-27.4 18.6-45.1 18.1-27.1-.9-51.2-22.4-54.9-49.3-.1-1.1-.5-2.1-.7-3.2v-11.7zm30.8-115.7c-3.4 0-5.9-2-6.3-5-.5-3.4 1.2-6 4.9-6.8 8-1.6 16.1-3.1 24.1-4.5l43.1-7.7c4-.7 7 1.1 7.7 4.4.7 3.5-1.2 6.4-5.1 7.1-22.5 4.1-45 8.2-67.5 12.2-.4.3-.8.3-.9.3zm74.5-109.6c0-3.5 2.1-5.9 5.1-6.4 3.1-.4 5.9 1.3 6.6 4.7 1.4 6.5 2.4 13 3.6 19.6 2.9 16 5.8 31.9 8.6 47.9.7 3.9-1.2 7-4.6 7.6-3.5.6-6.4-1.3-7.1-5.3-4.1-22.3-8.1-44.6-12.1-66.8-.1-.5-.1-1.1-.1-1.3z"/>
</svg>
